X: 23
T:Black S
R:Hornpipe
Z:added by Alf 
M:4/4
L:1/8
K:F
AB|:cFAc dFBd|cFAc f2 (3ef^f|gceg bdag|(3fef  (3gfd cBAB|
cFAc d<fed|cFAc f2ef|gcbg ecBG|F>efF-F2:|
ef|:gceg b<ceg|aAcf a2{ga}gf|gc'=ba  (3gag  (3fed|c>cc'c-c2A,B,|
(3CDC A,C FAc^c|d2DF Bdfb|aAcf  (3efe de|fa (3gfe f2:|
